X: 12152
T: Ewe, The
R: reel
M: 4/4
K: Gmajor
|:D<GGF D<GGE|=F2CF A,FCF|D<GGF D<GGg|1 fdcA (3Bcd AF:|fdcA B<GBd||
g2bg dgbg|fgaf dfaf|g2bg dgbg|ag (3fga gfga|
(3bag af gbag|fdcA (3Bcd AF|Dggf gbag|fdcA (3Bcd AF|

